X: 25571
T: Marish Ny Fiddleryn
R: waltz
M: 3/4
K: Gmajor
G Bd|g>f ga ge|d>B GG Bd|g>f ga ge|d3 B/c/ de|
d2 AA BA|G>F DG Bc|d>A cB GG|G3||

